X:1
T:Minuet in G minor
T:Minuet in G minor
T:(Piano & Flute)
T:Johann Sebastian Bach
C:Johann Sebastian Bach
%%score { 1 | 2 } 3
L:1/8
M:3/4
K:Bb
V:1 treble nm="Piyano" snm="Pno."
V:2 bass 
V:3 bass nm="Violoncello" snm="Vc."
V:1
!f!!f! (b2 a2 g2) | (a2 .d2) .d2 | g2 (GA Bc | d6) | (e2!>(!!>(! fe dc)!>)!!>)! | %5
!p!!p! (d2 e)d cB | (c2 d)c Bc | PA6 |!f!!f! (b2 a2 g2) | (a2 .d2) .d2 | %10
 g2!>(!!>(! (GA Bc)!>)!!>)! |!p!!p! d6 | Mf2 (gf e!<(!!<(!d)!<)!!f!!<)!!f! | e2 (fe dc) | %14
 d2 g2 Pc2 | [DFB]6 :: d2 (Bc d=e) | f2 g2 a2 |!>(! b2 (ga b)g!>)!!p! | a2 ga f2 | %20
!<(!!<(! (FG AB cd)!<)!!<)! |!f! e2 d2 c2 | f2 .B2 .A2 | B6 |!p! G2 dc d2 |!<(! G2 ed e2!<)! | %26
!f! (Gd ^Fc GB) | A4 z2 | (D=E ^FG AB) | c2 B2 A2 | PBc/d/ G2 ^F2 | [B,DG]6 :| %32
V:2
 (G,6 | F,6 | E,6 | D,2) (DC B,A,) | [G,B,]4 A,2 | (B,4 G,2) | (A,2 ^F,2 G,2) | %7
 D,2!<(!!<(! (DC B,A,)!<)!!<)! | (G,6 | F,6 | E,6) | D,2 (DC) =B,A, | [=B,D]4 G,2 | (C2 A,2 F,2) | %14
 B,2 E,2 [F,A,]2 | B,2 B,,4 :: B,6 | A,2 G,2 F,2 | G,2 =E,2 C,2 | F,4 z2 | (A,2 G,2 F,2) | %21
 G,2 F,2 E,2 | D,2 E,2 F,2 | B,,2 D2 C2 | [=B,D]6 | C6 | B,2 A,2 G,2 | D2 (A,G, ^F,=E,) | D,4 z2 | %29
 E,2 D,2 C,2 | B,,2 C,2 D,2 | G,2 G,,4 :| %32
V:3
!p! (G,6 | F,6 | E,6 | D,2) (DC B,A,) | B,4 A,2 | (B,4 G,2) | (A,2 ^F,2 G,2) | D,2 (DC B,A,) | %8
 (G,6 | F,6 | E,6) | D,2 (DC) =B,A, | =B,4 G,2 | (C2 A,2 F,2) | B,2 E,2 F,2 | B,2 B,,4 :: B,6 | %17
 A,2 G,2 F,2 | G,2 =E,2 C,2 | F,4 z2 | (A,2 G,2 F,2) | G,2 F,2 E,2 | D,2 E,2 F,2 | B,,2 D2 C2 | %24
 =B,6 | C6 | B,2 A,2 G,2 | D2 (A,G, ^F,=E,) | D,4 z2 | E,2 D,2 C,2 | B,,2 C,2 D,2 | G,2 G,,4 :| %32

